X: 51
T: VALSE SIMPLE
M: 3/4
L: 1/8
Q:1/4=60
K:C 
|Gc2 GA2|GBc dc2|Gc2 GA2|GBc dc2|
Gc2 gef|gag fde|fef gcd|ede fBc|!
dc2 gef|gag fde|fef gcd|ede fBc|
|:dc2 gc2|gf2 ad2|fe2 gc2|1ed2 fB2:|2dc2 gc2|
